!!!!SEGMENT: pl-kc--40102-iii-1-saf--001-031_zielenski-mikolaj--offertoria-totius-anni-in-festo-s-laurentij-martyris-confessio-et-pulchritudo.krn
!!!cenid: 16xx:1509
!!!COM: Zieleński, Mikołaj
!!!COM-rismID: pe30013481
!!!CDT: <1611->1611
!!!CNT: Polish
!!!GTL: Offertoria totius anni
!!!OTL: In festo S. Laurentij Martyris/Confessio et pulchritudo
!!!OMV: 031
!!!PDT: 1611
!!!AGN:
!!!SMS-siglum: PL-Kc
!!!SMS-shelfmark: 40102 III/1 Saf.
!!!SMS-shelfwork: 001-031 G
!!!SMS-variant:
!!!SMS-altvar:
!!!NIFC-rismSourceID: 990069886
!!!NIFC-rismChildID: 990069886
!!!NIFC-islandoraID:
!!!URL-pdf-islandora:
!!!URL-scan: https://cyfrowe.mnk.pl/dlibra/publication/24235/edition/23926/content?ref=desc @EN{Scan on The National Museum in Krakow Website} @PL{Skany w portalu Biblioteka Cyfrowa Muzeum Narodowego w Krakowie}
!!!ONB-nifc: UWAGA: str. 28-29. Uwaga: W xml metrum 2/1 do źródłowego C| i odpowiednio 3/1 do 3/2
!!!AIN: 2 empty 2 organ
!!!key:
**kern	**kern	**kern	**kern
*part4	*part3	*part2	*part1
*staff4	*staff3	*staff2	*staff1
*Iorgan	*Iempty	*Iorgan	*Iempty
*I"Organo	*	*I"Organo	*
*	*	*	*I'org
*	*	*	*ICklav
*clefF5	*clefC3	*clefC4	*clefG2
*k[]	*k[]	*k[]	*k[]
*C:	*C:	*C:	*C:
*M2/1	*M2/1	*M2/1	*M2/1
*met(C|)	*met(C|)	*met(C|)	*met(C|)
=1	=1	=1	=1
0GG/	0d\	00r	00r
=2	=2	=2	=2
1.EE/	1.e\	.	.
2EE/	2e\	.	.
=3	=3	=3	=3
1DD/	1A/	1r	1r
1r	1r	0G/	0dd\
=4	=4	=4	=4
0r	0r	.	.
.	.	1.E/	1.ee\
=5	=5	=5	=5
00r	00r	.	.
.	.	2E/	2ee\
.	.	2.D/	2.a/
.	.	2D/	2dd\
=6	=6	=6	=6
.	.	2d\	2ff\
.	.	4c\	4ee\
.	.	1B-X\	1dd\
=7	=7	=7	=7
1AA/	2r	1A\	1cc#X\
.	2e\	.	.
1.FF/	2e\	1r	1r
.	4d\	.	.
.	4c#X/	.	.
=8	=8	=8	=8
.	2d\	0r	0r
2FF/	2d\	.	.
2.EE/	2.e\	.	.
[<4EE/	[<4e\	.	.
=9	=9	=9	=9
4EE/]	4e\]	00r	00r
2AA/	2e\	.	.
4DD/	4f\	.	.
1AA/	1e\	.	.
=10	=10	=10	=10
4DD/	4f#X\	.	.
2D\	2a\	.	.
4D\	4d\	.	.
2BB/	2g\	.	.
2C\	2g\	.	.
=11	=11	=11	=11
1AA/	1a\	1r	1r
1GG/	1d\	4r	4r
.	.	2G/	2dd\
.	.	4G/	4dd\
=12	=12	=12	=12
0r	0r	2E/	2ee\
.	.	2F/	2cc\
.	.	1D/	1ff\
=13	=13	=13	=13
2r	2r	1C/	1.ee\
2CC/	2c/	.	.
2.GG/	2.B/	2r	.
.	.	2D/	2dd\
4GG/	4B/	.	.
=14	=14	=14	=14
1DD/	1A/	2.D/	2.ff\
.	.	4D/	4ff\
2r	2r	1A\	1ee\
2BB/	2c/	.	.
=15	=15	=15	=15
2.C\	2.c/	2r	2r
.	.	2G/	2ee\
4C\	4c/	.	.
2GG/	1.d\	2.B\	2.gg\
2GG/	.	.	.
.	.	4B\	4gg\
=16	=16	=16	=16
2.DD/	.	1.A\	2ff\
.	2f\	.	2dd\
4DD/	.	.	.
2AA/	2e\	.	4ee\
.	.	.	4cc\
*	*custos:g	*custos:G	*custos:ff
4GG/	2f\	2c\	[<2ff\
*custos:E	*	*	*
4FF/	.	.	.
!!LO:PB:g=original
=17	=17	=17	=17
2C\	1g\	2G/	4ff\]
.	.	.	8ee\
.	.	.	8dd\
2CC/	.	2c\	2ee\
1.FF/	2f\	1c\	2ff\
.	2F/	.	4cc\
.	.	.	4dd\
=18	=18	=18	=18
.	1G/	1C/	4ee\
.	.	.	4ff\
4CC/	.	.	1gg\
4DD/	.	.	.
4EE/	2G/	2r	.
4FF/	.	.	.
2GG/	2d\	[>2D/	2dd\
=19	=19	=19	=19
1DD/	1d\	2D/]	1ff\
.	.	2A/	.
2.AA/	2.A/	1.A\	2ee\
.	.	.	1aa\
4GG/	4B/	.	.
=20	=20	=20	=20
2FF/	2c/	.	.
2GG/	2g\	2B-X\	2gg\
1D\	2d\	2B-\	4ff\
.	.	.	4dd\
.	2.d\	4A/	4gg\
.	.	4G/	[<4gg\
=21	=21	=21	=21
1DD/	.	1A\	4gg\]
.	4d\	.	8ff#X\
.	.	.	8ee\
.	2d\	.	2ff#\
1GG/	1d\	2G/	2gg\
.	.	1G/	1dd\
=22	=22	=22	=22
0r	0r	.	.
.	.	2E/	2ee\
.	.	2.D/	2.ff\
.	.	4d\	4dd\
=23	=23	=23	=23
00r	00r	2c\	2ee\
.	.	4c\	4ee\
.	.	4A/	4ff\
.	.	2B-X\	2dd\
.	.	2G/	2ee\
=24	=24	=24	=24
.	.	2.A/	2.cc#X\
.	.	4d\	4dd\
.	.	4c\	4ee\
.	.	8c\	8ee\
.	.	8c\	8ee\
.	.	4c\	4ee\
.	.	4A/	4ff#X\
=25	=25	=25	=25
00r	00r	2G/	4gg\
.	.	.	4dd\
.	.	2F/	2.ff\
.	.	2c\	.
.	.	.	8ee\
.	.	.	8dd\
.	.	2C/	2ee\
=26	=26	=26	=26
.	.	2.F/	2.ff\
.	.	4F/	4ff\
.	.	4c\	4ee\
.	.	8c\	8ee\
.	.	8c\	8ee\
.	.	4c\	4ee\
.	.	4G/	4dd\
=27	=27	=27	=27
0r	0r	2A/	4cc\
.	.	.	4a/
.	.	2D/	2.dd\
.	.	1A\	.
.	.	.	8cc#X\
.	.	.	8b\
.	.	.	2cc#\
=28	=28	=28	=28
2r	2r	1D/	1dd\
1D\	1f\	.	.
.	.	1r	1r
2DD/	2d\	.	.
=29	=29	=29	=29
2.AA/	2.c#X/	00r	00r
4D\	4d\	.	.
2C\	2e\	.	.
4C\	4e\	.	.
4AA/	4f\	.	.
=30	=30	=30	=30
2BB-X/	2d\	.	.
2GG/	2e\	.	.
2.AA/	2.c#X/	.	.
4FF/	4f\	.	.
=31	=31	=31	=31
4BB-X/	4d\	00r	00r
8BB-/	8d\	.	.
8BB-/	8d\	.	.
4BB-/	4d\	.	.
4GG/	4g\	.	.
2AA/	4e\	.	.
.	4c/	.	.
2FF/	2.f\	.	.
=32	=32	=32	=32
2C\	.	.	.
.	8e\	.	.
.	8d\	.	.
2CC/	2e\	.	.
2.FF/	2.f\	.	.
4FF/	4f\	.	.
=33	=33	=33	=33
4C\	4e\	0r	0r
8C\	8e\	.	.
8C\	8e\	.	.
4C\	4e\	.	.
4AA/	4f\	.	.
2BB-X/	2d\	.	.
2GG/	2.g\	.	.
=34	=34	=34	=34
2D\	.	1r	1r
.	8f#X\	.	.
.	8e\	.	.
2DD/	2f#\	.	.
1GG/	1g\	2r	2r
.	.	[<2G/	[<2dd\
=35	=35	=35	=35
0r	0r	2G/]	2dd\]
.	.	2E/	2ee\
.	.	1D/	1ff\
=36	=36	=36	=36
2r	2r	2rF	2r
1DD/	1f\	1F/	1aa\
2DD/	2a\	2D/	2ff\
=37	=37	=37	=37
1AA/	1.e\	1E/	1ee\
2r	.	1r	1r
2FF/	2a\	.	.
=38	=38	=38	=38
*	*	*custos:F	*custos:ff
2C\	2g\	0r	0r
4C\	4g\	.	.
4AA/	4a\	.	.
2BB-X/	2d\	.	.
*custos:CC	*custos:f	*	*
2GG/	2e\	.	.
!!LO:LB:g=original
=39	=39	=39	=39
1FF/	1f\	2r	2r
.	.	2F/	2ff\
1r	1r	2c\	2ee\
.	.	4c\	4ee\
.	.	4G/	4dd\
=40	=40	=40	=40
1r	1r	2A/	2cc#X\
.	.	2D/	2dd\
2r	2r	2.A/	2.ee\
2AA/	2e\	.	.
.	.	4A/	4ee\
=41	=41	=41	=41
2EE/	2e\	2G/	2gg\
4EE/	4e\	4c\	4gg\
4FF/	4A/	4F/	4ff\
2CC/	2e\	2G/	2ee\
2CC/	2e\	2G/	2ee\
=42	=42	=42	=42
2.GG/	2.B/	1G/	1dd\
4GG/	4B/	.	.
4EE/	4e\	1r	1r
8EE/	8e\	.	.
8EE/	8e\	.	.
4FF/	4c/	.	.
4DD/	4d\	.	.
=43	=43	=43	=43
2AA/	2e\	1r	1r
2DD/	2f\	.	.
1AA/	1e\	2r	2r
.	.	2E/	2ee\
=44	=44	=44	=44
2DD/	2a\	4D/	4ff#X\
.	.	8D/	8ff#\
.	.	8D/	8ff#\
2r	2r	4d\	4ff#\
.	.	4B\	4gg\
1r	1r	2c\	2ee\
.	.	2G/	2.gg\
=45	=45	=45	=45
2r	2r	1d\	.
.	.	.	8ff#X\
.	.	.	8ee\
2EE/	2d\	.	2ff#\
4GG/	4B/	2.G/	2.gg\
8GG/	8B/	.	.
8GG/	8B/	.	.
4EE/	4e\	.	.
4EE/	4e\	4c\	4gg\
=46	=46	=46	=46
2FF/	2A/	4F/	4ff\
.	.	8F/	8ff\
.	.	8F/	8ff\
2CC/	2e\	4c\	4ee\
.	.	4c\	4ee\
[>1GG/	2B/	2G/	2dd\
.	2e\	2G/	2.cc\
=47	=47	=47	=47
1GG/]	4d\	1G/	.
.	2g\	.	8b/
.	.	.	8a/
.	.	.	2b/
.	4f\	.	.
1CC/	1e\	2G/	2cc\
.	.	2c\	2ee\
=48	=48	=48	=48
2r	2r	4F/	4ff\
.	.	8F/	8ff\
.	.	8F/	8ff\
2C\	2c/	4C/	4gg\
.	.	4C/	4gg\
4FF/	4c/	2F/	2aa\
8FF/	8c/	.	.
8FF/	8c/	.	.
4CC/	4e\	2c\	2gg\
4CC/	4e\	.	.
=49	=49	=49	=49
2FF/	2f\	2F/	2ff\
2CC/	2g\	4c\	4ee\
.	.	4c\	4ee\
2r	2r	4A/	4ff\
.	.	8A/	8ff\
.	.	8A/	8ff\
2C\	2c/	4C/	4gg\
.	.	4C/	4gg\
=50	=50	=50	=50
4FF/	4c/	2F/	2aa\
8FF/	8c\	.	.
8FF/	8c\	.	.
4CC/	4e\	2c\	2gg\
4CC/	4e\	.	.
2FF/	4f\	2F/	2ff\
.	8e\	.	.
.	8d\	.	.
2C\	2e\	2C/	2ee\
=51	=51	=51	=51
2FF/	2f\	2r	2r
4CC/	4e\	2C/	2ee\
4C\	4e\	.	.
4GG/	4g\	4G/	4dd\
8GG/	8g\	8G/	8dd\
8GG/	8g\	8G/	8dd\
4GG/	4d\	4G/	4dd\
4GG/	4d\	4G/	4ee\
=52	=52	=52	=52
2D\	2d\	2D/	4ff\
.	.	.	4dd\
2GG/	2d\	2D/	2.gg\
2D\	1d\	1D/	.
.	.	.	8ff#X\
.	.	.	8ee\
2DD/	.	.	2ff#\
=53	=53	=53	=53
1GG/	1d\	2D/	2gg\
.	.	1G/	1dd\
1r	1r	.	.
.	.	2E/	2ee\
=54	=54	=54	=54
1r	1r	1D/	1ff\
2r	2r	2r	2r
[<2DD/	[<2f\	[<2F/	[<2aa\
=55	=55	=55	=55
2DD/]	2f\]	2F/]	2aa\]
2DD/	2a\	2D/	2ff\
1AA/	1e\	1E/	1ee\
=56	=56	=56	=56
2r	2r	0r	0r
2FF/	2a\	.	.
2C\	2g\	.	.
4C\	4g\	.	.
4AA/	4a\	.	.
=57	=57	=57	=57
2BB-X/	2d\	1r	1r
2GG/	2e\	.	.
1FF/	1f\	2r	2r
.	.	2F/	2ff\
=58	=58	=58	=58
0r	0r	2c\	2ee\
.	.	4c\	4ee\
.	.	4G/	4dd\
.	.	2A/	2cc#X\
.	.	2D/	2dd\
=59	=59	=59	=59
2r	2r	2.A/	2.ee\
2AA/	2e\	.	.
.	.	4A/	4ee\
2EE/	2e\	2G/	2gg\
4EE/	4e\	4c\	4gg\
4FF/	4A/	4F/	4ff\
=60	=60	=60	=60
2CC/	2e\	2G/	2ee\
2CC/	2e\	2G/	2ee\
*	*	*custos:G	*custos:ee
2.GG/	2.B/	1G/	1dd\
*	*custos:e	*	*
*custos:E	*	*	*
4GG/	4B/	.	.
!!LO:LB:g=original
=61	=61	=61	=61
1AA/	1e\	2r	2r
.	.	2E/	2ee\
2DD/	2a\	4D/	4ff\
.	.	8D/	8ff\
.	.	8D/	8ff\
2r	2r	4d\	4ff\
.	.	4B\	4gg\
=62	=62	=62	=62
1r	1r	2c\	2ee\
.	.	2G/	2.gg\
2r	2r	1d\	.
!	!	!	!LO:TX:a:t=P:problem=# above
.	.	.	8ff#X\
.	.	.	8ee\
2DD/	2d\	.	2ff#\
=63	=63	=63	=63
4GG/	4B/	2.G/	2.gg\
8GG/	8B/	.	.
8GG/	8B/	.	.
4EE/	4e\	.	.
4EE/	4e\	4c\	4gg\
2FF/	2A/	4F/	4ff\
.	.	8F/	8ff\
.	.	8F/	8ff\
2CC/	2e\	4c\	4ee\
.	.	4c\	4ee\
=64	=64	=64	=64
0GG/	2B/	2G/	2dd\
.	2e\	2G/	2.cc\
.	4d\	1G/	.
.	2g\	.	8b/
.	.	.	8a/
.	.	.	2b/
.	4f\	.	.
=65	=65	=65	=65
1CC/	1e\	2G/	2cc\
.	.	2c\	2ee\
2r	2r	4F/	4ff\
.	.	8F/	8ff\
.	.	8F/	8ff\
2C\	2c/	4D/	4gg\
.	.	4D/	4gg\
=66	=66	=66	=66
4FF/	4c/	2F/	2aa\
8FF/	8c/	.	.
8FF/	8c/	.	.
4CC/	4e\	2c\	2gg\
4CC/	4e\	.	.
2FF/	2f\	2F/	2ff\
2CC/	2g\	4c\	4ee\
.	.	4c\	4ee\
!!linebreak:original
=67	=67	=67	=67
2r	2r	4F/	4ff\
.	.	8F/	8ff\
.	.	8F/	8ff\
2C\	2c/	4C/	4gg\
.	.	4C/	4gg\
4FF/	4c/	2F/	2aa\
8FF/	8c/	.	.
8FF/	8c/	.	.
4CC/	4e\	2c\	2gg\
4CC/	4e\	.	.
=68	=68	=68	=68
2FF/	4f\	2F/	2ff\
.	8e\	.	.
.	8d\	.	.
2C\	2e\	2C/	2ee\
2FF/	2f\	2r	2r
4CC/	4e\	2C/	2ee\
4C\	4e\	.	.
=69	=69	=69	=69
4GG/	4g\	4G/	4dd\
8GG/	8g\	8G/	8dd\
8GG/	8g\	8G/	8dd\
4GG/	4d\	4G/	4dd\
4GG/	4d\	4G/	4ee\
2D\	2d\	2D/	4ff\
.	.	.	4dd\
2GG/	2d\	2D/	1gg\
=70	=70	=70	=70
1D\	0d\	0D/	.
!	!	!	!LO:TX:a:t=P:problem=# above
.	.	.	4ff#X\
.	.	.	4ee\
1DD/	.	.	1ff#\
=71	=71	=71	=71
00GG/	00d\	00D/	00gg\
==	==	==	==
*-	*-	*-	*-
!!!system-decoration: s1,s2,s3,s4
!!!RDF**kern: > = above
!!!RDF**kern: < = below
!!!ENC: Berenika Jozajtis
!!!END: 2021-12-18
!!!ENC: Leszek Kubiak
!!!END: 2021-12-22
!!!YEC: Copyright 2022 Narodowy Instytut Fryderyka Chopina (https://polishscores.org)
!!!YEM: License CC-BY-4.0 (https://creativecommons.org/licenses/by/4.0)
